domfk/img/icons/icon-1.svg

<svg width="12" height="12" viewBox="0 0 12 12" fill="none" xmlns="http://www.w3.org/2000/svg">
<path d="M10.6667 1.33333V10.6667H1.33333V1.33333H10.6667ZM10.6667 0H1.33333C0.6 0 0 0.6 0 1.33333V10.6667C0 11.4 0.6 12 1.33333 12H10.6667C11.4 12 12 11.4 12 10.6667V1.33333C12 0.6 11.4 0 10.6667 0ZM7.42667 5.90667L5.42667 8.48667L4 6.76L2 9.33333H10L7.42667 5.90667Z" fill="#FFC844"/>
</svg>

<svg width="12" height="12" fill="none" xmlns="http://www.w3.org/2000/svg"><path d="M10.667 1.333v9.334H1.333V1.333h9.334zm0-1.333H1.333C.6 0 0 .6 0 1.333v9.334C0 11.4.6 12 1.333 12h9.334C11.4 12 12 11.4 12 10.667V1.333C12 .6 11.4 0 10.667 0zm-3.24 5.907l-2 2.58L4 6.76 2 9.333h8L7.427 5.907z" fill="#FFC844"/></svg>
